X:1
T:The Death of Harry Simms
M:4/4
L:1/8
K:C
 AA| GF DD FG AA| GF EC D4-| D6 AG| AG AG A d2 A| cA cd A4-| A6 AG|\
 AG AG A d2 A| cA cd A3 A| GF DD FG A2-| A6- AA| GF DC D4-| D6||
